X:2947
T:Jalasjaerven Polka
O:england
C:Teppo Välimäki
M:2/4
L:1/16
K:G
GBcd edcB|AcAF ddd2|FABc dcBA|BdBG eee2|\
GBcd edcB|AcAF ddd2|
d2fe dcBA|G2g2 g4:|b2gg bgee|f2ee feff|f2fe dcBA|GGBc d2g2|\
b2gg bgee|
f2ee feff|f2fe dcBA|G2g2 g4:|D|G2DG BGGD|\
FFDF AFD2|ddDF ddDF|A2GG G2D2|
GGDG BGDD|FFDF AFD2|ddDF ddDF|A2G2 G4:|\
GB|dded c2B2|A2dd dFAB|
ccdc B2A2|G2ee eGBc|\
dded c2B2|A2dd dFAB|cBAG FFDF|A2G2 G4:|


